svg/martini.svg

<svg viewBox="0 0 20 20" xmlns="http://www.w3.org/2000/svg">
<rect width="100%" height="100%" fill="#2A3646"/>
<path d="M3.83789 4H6.82351L9.97685 11.6933H10.111L13.2644 4H16.25V15.4505H13.9018V7.99759H13.8067L10.8435 15.3945H9.24443L6.28118 7.96964H6.18613V15.4505H3.83789V4Z" fill="white"/>
</svg>

<svg xmlns="http://www.w3.org/2000/svg" viewBox="0 0 20 20">
  <rect width="100%" height="100%" fill="#2A3646"/>
  <path fill="#fff" d="M3.84 4h2.98l3.16 7.7h.13L13.26 4h2.99v11.45H13.9V8h-.1l-2.96 7.4h-1.6L6.28 7.96h-.1v7.48H3.85V4Z"/>
</svg>
